icons/op-headset-24.svg

<svg width="24" height="24" viewBox="0 0 24 24" fill="none" xmlns="http://www.w3.org/2000/svg">
<path d="M18.9881 9.75246C18.166 6.42043 15.3518 4 12 4C8.64822 4 5.83399 6.42043 5.01186 9.62672C4.41107 9.84676 4 10.3497 4 10.947V12.6444C4 13.4617 4.60079 14.0589 5.42292 14.0589H7.03557V9.62672H6.02372C6.84585 6.92338 9.15415 5.00589 12 5.00589C14.8458 5.00589 17.1542 6.92338 17.9763 9.62672H16.9644V14.0589H17.6601C16.8696 15.9764 15.3518 17.391 13.3281 17.8939C13.1067 17.391 12.6008 16.9823 12 16.9823C11.1779 16.9823 10.4822 17.6739 10.4822 18.4912C10.4822 18.8998 10.5771 19.1827 10.7984 19.4028C11.083 19.8114 11.4941 20 12 20C12.6957 20 13.2016 19.4971 13.4229 18.8998C15.9526 18.3969 17.9763 16.4794 18.7668 14.0589C19.4941 13.9646 20 13.3674 20 12.6444V11.0413C20 10.444 19.5889 9.84676 18.9881 9.75246ZM12 16.2908C14.3399 16.2908 16.1423 14.4676 16.1423 12.3615V10.8527C16.1423 8.62083 14.3399 6.92338 12 6.92338C9.66008 6.92338 7.85771 8.62083 7.85771 10.8527V12.3615C7.85771 14.4676 9.66008 16.2908 12 16.2908Z" fill="black"/>
</svg>

<svg xmlns="http://www.w3.org/2000/svg" width="24" height="24" viewBox="0 0 24 24"><path d="M18.988 9.752C18.166 6.42 15.352 4 12 4 8.648 4 5.834 6.42 5.012 9.627 4.411 9.847 4 10.35 4 10.947v1.697c0 .818.601 1.415 1.423 1.415h1.613V9.627H6.024C6.846 6.923 9.154 5.006 12 5.006s5.154 1.917 5.976 4.621h-1.012v4.432h.696c-.79 1.917-2.308 3.332-4.332 3.835-.221-.503-.727-.912-1.328-.912-.822 0-1.518.692-1.518 1.509 0 .409.095.692.316.912.285.408.696.597 1.202.597.696 0 1.202-.503 1.423-1.1 2.53-.503 4.553-2.421 5.344-4.841A1.402 1.402 0 0 0 20 12.644v-1.603c0-.597-.411-1.194-1.012-1.289ZM12 16.291c2.34 0 4.142-1.823 4.142-3.93v-1.508c0-2.232-1.802-3.93-4.142-3.93-2.34 0-4.142 1.698-4.142 3.93v1.508c0 2.107 1.802 3.93 4.142 3.93Z"/></svg>
